images/users.svg

<svg enable-background="new 0 0 64 64" height="64" viewBox="0 0 64 64" width="64" xmlns="http://www.w3.org/2000/svg"><path d="m63.9 46.1h-12.4c0-13.5-6.8-7.1-6.8-18.9 0-4.3 2.8-6.6 6.4-6.6 5.3 0 9 5.1 4 14.5-1.7 3.1 1.8 3.9 5.4 4.7 3.7.9 3.4 2.8 3.4 6.3zm-60.5-6.3c3.7-.8 7.1-1.6 5.4-4.7-5-9.5-1.3-14.5 4-14.5 3.6 0 6.4 2.3 6.4 6.6 0 11.8-6.8 5.4-6.8 18.9h-12.4c0-3.5-.3-5.4 3.4-6.3zm40.4-1.6c-4.6-1.1-8.9-2-6.8-5.9 6.3-11.9 1.7-18.3-5-18.3-6.8 0-11.3 6.6-5 18.3 2.1 3.9-2.3 4.9-6.8 5.9-4.6 1.1-4.2 3.5-4.2 7.9h32c0-4.4.4-6.8-4.2-7.9z" fill="#010101"/></svg>

<?xml version="1.0" encoding="utf-8"?>
<!-- Generator: Adobe Illustrator 19.0.0, SVG Export Plug-In . SVG Version: 6.00 Build 0)  -->
<!DOCTYPE svg PUBLIC "-//W3C//DTD SVG 1.1//EN" "http://www.w3.org/Graphics/SVG/1.1/DTD/svg11.dtd">
<svg version="1.1" id="Layer_1" xmlns="http://www.w3.org/2000/svg" xmlns:xlink="http://www.w3.org/1999/xlink" x="0px" y="0px"
	 width="64px" height="64px" viewBox="0 0 64 64" style="enable-background:new 0 0 64 64;" xml:space="preserve">
<style type="text/css">
	.st0{fill:#010101;}
</style>
<path id="user-14-icon" class="st0" d="M63.9,46.1H51.5c0-13.5-6.8-7.1-6.8-18.9c0-4.3,2.8-6.6,6.4-6.6c5.3,0,9,5.1,4,14.5
	c-1.7,3.1,1.8,3.9,5.4,4.7C64.2,40.7,63.9,42.6,63.9,46.1z M3.4,39.8c3.7-0.8,7.1-1.6,5.4-4.7c-5-9.5-1.3-14.5,4-14.5
	c3.6,0,6.4,2.3,6.4,6.6c0,11.8-6.8,5.4-6.8,18.9H0C0,42.6-0.3,40.7,3.4,39.8z M43.8,38.2c-4.6-1.1-8.9-2-6.8-5.9
	C43.3,20.4,38.7,14,32,14c-6.8,0-11.3,6.6-5,18.3c2.1,3.9-2.3,4.9-6.8,5.9c-4.6,1.1-4.2,3.5-4.2,7.9H48C48,41.7,48.4,39.3,43.8,38.2
	z"/>
</svg>
